X: 138
T:The Magic Slipper
M:2/4
L:1/8
K:D
B|"D"A>B AF|DF Ad|A>B AF|"A7"GF EF/E/|"D"DE FG|AB cd|"A7"e>d ce|1 "D"d2 dB:|2 d2 de||!
"D"fd "G"ge|"D"fd "A7"cB|"D"A>d cd|"A"fe e>g|"D"fd "G"ge|"D"fd "A"cB|Ag ec|"D"d2 d>e|!
"D"f>a "G"ge|"D"fd "A7"cB|"D"A>d cd|"A"fe e>g|"D"fd "G"ge|"D"fd "A"cB|Ag ec|"D"d2 dB||

